img/phone-icon.svg

<svg width="77" height="77" viewBox="0 0 77 77" fill="none" xmlns="http://www.w3.org/2000/svg">
<path fill-rule="evenodd" clip-rule="evenodd" d="M38.5 77C59.763 77 77 59.763 77 38.5C77 17.237 59.763 0 38.5 0C17.237 0 0 17.237 0 38.5C0 59.763 17.237 77 38.5 77Z" fill="url(#paint0_linear)"/>
<path fill-rule="evenodd" clip-rule="evenodd" d="M17.5208 26.0663C18.4906 23.4681 21.5614 20.058 23.016 18.759C24.4706 17.2975 24.4706 17.2975 24.4706 17.2975C24.4706 17.2975 25.4404 16.3232 26.4101 17.1351C27.2182 17.947 33.8448 25.5792 33.8448 25.5792C33.8448 25.5792 34.6529 26.5535 33.6832 27.6902C32.5518 28.8269 28.9961 32.237 28.9961 32.237C28.9961 32.237 28.3496 33.2113 29.1577 34.348C32.3902 38.8948 38.2086 44.9031 42.8957 47.9884C43.8654 48.8003 44.8352 48.3132 44.8352 48.3132C44.8352 48.3132 48.3909 44.5783 49.3606 43.604C50.492 42.4673 51.4617 43.2792 51.4617 43.2792C51.4617 43.2792 59.058 49.937 59.8662 50.9113C60.6743 51.8857 59.7045 52.86 59.7045 52.86C59.7045 52.86 59.7045 52.86 58.4115 54.3214C56.9569 55.6205 53.5628 58.8683 50.9769 59.8426C41.1178 63.5774 13.6419 35.9719 17.5208 26.0663Z" fill="white"/>
<defs>
<linearGradient id="paint0_linear" x1="11.7181" y1="65.2692" x2="89.1753" y2="-12.1405" gradientUnits="userSpaceOnUse">
<stop stop-color="#C9005D"/>
<stop offset="0.00040942" stop-color="#C9005D"/>
<stop offset="0.2482" stop-color="#C9005D"/>
<stop offset="0.9831" stop-color="#315BBC"/>
<stop offset="1" stop-color="#315BBC"/>
</linearGradient>
</defs>
</svg>

<svg width="77" height="77" fill="none" xmlns="http://www.w3.org/2000/svg">
  <path fill-rule="evenodd" clip-rule="evenodd" d="M38.5 77C59.763 77 77 59.763 77 38.5S59.763 0 38.5 0 0 17.237 0 38.5 17.237 77 38.5 77z" fill="url(#paint0_linear)"/>
  <path fill-rule="evenodd" clip-rule="evenodd" d="M17.52 26.066c.97-2.598 4.041-6.008 5.496-7.307l1.455-1.462s.97-.974 1.94-.162c.807.812 7.434 8.444 7.434 8.444s.808.974-.162 2.111c-1.131 1.137-4.687 4.547-4.687 4.547s-.646.974.162 2.111c3.232 4.547 9.05 10.555 13.738 13.64.97.812 1.94.325 1.94.325s3.555-3.735 4.525-4.709c1.131-1.137 2.1-.325 2.1-.325s7.597 6.658 8.405 7.632c.808.975-.161 1.949-.161 1.949l-1.294 1.461c-1.454 1.3-4.848 4.547-7.434 5.522-9.86 3.734-37.335-23.871-33.456-33.777z" fill="#fff"/>
  <defs>
    <linearGradient id="paint0_linear" x1="11.718" y1="65.269" x2="89.175" y2="-12.14" gradientUnits="userSpaceOnUse">
      <stop stop-color="#C9005D"/>
      <stop offset="0" stop-color="#C9005D"/>
      <stop offset=".248" stop-color="#C9005D"/>
      <stop offset=".983" stop-color="#315BBC"/>
      <stop offset="1" stop-color="#315BBC"/>
    </linearGradient>
  </defs>
</svg>
